svg/business/currency_pound_2_line.svg

<?xml version="1.0" encoding="UTF-8"?>
<svg width="24px" height="24px" viewBox="0 0 24 24" version="1.1" xmlns="http://www.w3.org/2000/svg" xmlns:xlink="http://www.w3.org/1999/xlink">
    <title>currency_pound_2_line</title>
    <g id="页面-1" stroke="none" stroke-width="1" fill="none" fill-rule="evenodd">
        <g id="Business" transform="translate(-288.000000, -288.000000)" fill-rule="nonzero">
            <g id="currency_pound_2_line" transform="translate(288.000000, 288.000000)">
                <path d="M24,0 L24,24 L0,24 L0,0 L24,0 Z M12.5934901,23.257841 L12.5819402,23.2595131 L12.5108777,23.2950439 L12.4918791,23.2987469 L12.4918791,23.2987469 L12.4767152,23.2950439 L12.4056548,23.2595131 C12.3958229,23.2563662 12.3870493,23.2590235 12.3821421,23.2649074 L12.3780323,23.275831 L12.360941,23.7031097 L12.3658947,23.7234994 L12.3769048,23.7357139 L12.4804777,23.8096931 L12.4953491,23.8136134 L12.4953491,23.8136134 L12.5071152,23.8096931 L12.6106902,23.7357139 L12.6232938,23.7196733 L12.6232938,23.7196733 L12.6266527,23.7031097 L12.609561,23.275831 C12.6075724,23.2657013 12.6010112,23.2592993 12.5934901,23.257841 L12.5934901,23.257841 Z M12.8583906,23.1452862 L12.8445485,23.1473072 L12.6598443,23.2396597 L12.6498822,23.2499052 L12.6498822,23.2499052 L12.6471943,23.2611114 L12.6650943,23.6906389 L12.6699349,23.7034178 L12.6699349,23.7034178 L12.678386,23.7104931 L12.8793402,23.8032389 C12.8914285,23.8068999 12.9022333,23.8029875 12.9078286,23.7952264 L12.9118235,23.7811639 L12.8776777,23.1665331 C12.8752882,23.1545897 12.8674102,23.1470016 12.8583906,23.1452862 L12.8583906,23.1452862 Z M12.1430473,23.1473072 C12.1332178,23.1423925 12.1221763,23.1452606 12.1156365,23.1525954 L12.1099173,23.1665331 L12.0757714,23.7811639 C12.0751323,23.7926639 12.0828099,23.8018602 12.0926481,23.8045676 L12.108256,23.8032389 L12.3092106,23.7104931 L12.3186497,23.7024347 L12.3186497,23.7024347 L12.3225043,23.6906389 L12.340401,23.2611114 L12.337245,23.2485176 L12.337245,23.2485176 L12.3277531,23.2396597 L12.1430473,23.1473072 Z" id="MingCute" fill-rule="nonzero"></path>
                <path d="M16.1221,5.021 C15.4138,3.77642 14.0888,3 12.6459,3 L11.8003,3.00489 C9.68376,3.1088 8,4.85575 8,6.99777 L8,11 L6,11 C5.44772,11 5,11.4477 5,12 C5,12.5523 5.44772,13 6,13 L8,13 L8,16 C7.98189,16.6321 7.83746,17.251 7.3415,17.6849 C7.12057,17.8886 6.81724,17.9733 6.55279,18.1056 C5.48397,18.64 6.08324,20.26 7.24254,19.9701 C7.53417,19.8883 7.80224,19.7386 8.10398,19.6897 C9.44441,19.3834 10.7474,19.6541 12.0311,20.058 C13.7163,20.5565 15.8193,20.7084 17.4472,19.8944 C17.9412,19.6474 18.1414,19.0468 17.8944,18.5528 C17.6474,18.0588 17.0468,17.8586 16.5528,18.1056 C15.1737,18.7951 13.3497,18.3765 11.9689,17.942 C11.2448,17.7278 10.504,17.6035 9.751,17.559 C9.92265,17.0567 10,16.5306 10,16 L10,13 L13,13 C13.5523,13 14,12.5523 14,12 C14,11.4477 13.5523,11 13,11 L10,11 L10,6.99777 C10.0399,5.91105 10.8803,5 12,5 L12.8071,5.00649 C13.5006,5.06242 14.1202,5.47641 14.4348,6.10559 L15.1637,7.5485 C15.4378,7.96751 15.9885,8.12377 16.4472,7.89443 C16.9412,7.64745 17.1414,7.04678 16.8944,6.5528 L16.1221,5.021 Z" id="路径" fill="#09244B"></path>
            </g>
        </g>
    </g>
</svg>

<svg xmlns="http://www.w3.org/2000/svg" width="24" height="24"><g fill="none" fill-rule="nonzero"><path d="M24 0v24H0V0zM12.593 23.258l-.011.002-.071.035-.02.004-.014-.004-.071-.035c-.01-.004-.019-.001-.024.005l-.004.01-.017.428.005.02.01.013.104.074.015.004.012-.004.104-.074.012-.016.004-.017-.017-.427c-.002-.01-.009-.017-.017-.018m.265-.113-.013.002-.185.093-.01.01-.003.011.018.43.005.012.008.007.201.093c.012.004.023 0 .029-.008l.004-.014-.034-.614c-.003-.012-.01-.02-.02-.022m-.715.002a.023.023 0 0 0-.027.006l-.006.014-.034.614c0 .012.007.02.017.024l.015-.002.201-.093.01-.008.004-.011.017-.43-.003-.012-.01-.01z"/><path fill="#09244B" d="M16.122 5.021A4 4 0 0 0 12.646 3l-.846.005A3.998 3.998 0 0 0 8 6.998V11H6a1 1 0 1 0 0 2h2v3c-.018.632-.163 1.251-.659 1.685-.22.204-.524.288-.788.42-1.069.535-.47 2.155.69 1.865.291-.082.56-.231.861-.28 1.34-.307 2.643-.036 3.927.368 1.685.498 3.788.65 5.416-.164a1 1 0 1 0-.894-1.788c-1.38.69-3.203.27-4.584-.164a9.842 9.842 0 0 0-2.218-.383A4.808 4.808 0 0 0 10 16v-3h3a1 1 0 1 0 0-2h-3V6.998C10.04 5.91 10.88 5 12 5l.807.006a2 2 0 0 1 1.628 1.1l.729 1.443a1 1 0 0 0 1.73-.996z"/></g></svg>
